X: 30
T: Tynes in Overtime
C: Ewen Henderson
O: Scotland
R: march
M: 4/4
L: 1/8
K: Amixolydian
GA | "Am" B2 A2 A2 GA | B2 A2 A2 Bd | "G" g2 fg "D" a2 fd | "Am" f e3 e2 ef |
     "G" g2 fg "D" a2 dB | "G" B2 AB "D" d2 A/B/d | "Am" e3 f "G" gfed | "Am" B2 A2 A2 :|
   |: B/c/d | "G" g2 fg "D" a2 fd | "Am" fe3 e2 af | "G" g2 fg "D" a2 fd | 
      "Am" fe3 e2 ef | "G" g2 fg "D" a2 dB | "G" B2 AB "D" d2 A/B/d | "Am" e3 f "Em" gfed | "Am" B2 A2 A2 :|


